src/assets/images/TransPaypal.svg

<?xml version="1.0" encoding="UTF-8" standalone="no"?><!-- Generator: Gravit.io --><svg xmlns="http://www.w3.org/2000/svg" xmlns:xlink="http://www.w3.org/1999/xlink" style="isolation:isolate" viewBox="0 0 400 300" width="400pt" height="300pt"><defs><clipPath id="_clipPath_HSTSMCX7OI2zcUhvjS8DifVmmbg41EMO"><rect width="400" height="300"/></clipPath></defs><g clip-path="url(#_clipPath_HSTSMCX7OI2zcUhvjS8DifVmmbg41EMO)"><path d=" M 36.717 165.335 L 185.843 80.469 C 193.262 76.235 202.376 76.281 209.752 80.589 L 363.399 170.084 C 367.498 172.472 370.013 176.863 370 181.606 C 369.987 186.35 367.446 190.726 363.334 193.091 L 219.892 275.446 C 210.004 281.131 197.839 281.131 187.952 275.446 L 36.663 188.407 C 32.531 186.03 29.989 181.622 30 176.855 C 30.011 172.088 32.574 167.692 36.717 165.335 Z " fill="rgb(229,119,10)"/><path d=" M 189.265 94.877 L 238.74 94.877 C 265.304 94.877 275.304 108.325 273.759 128.082 C 271.205 160.699 251.486 178.745 225.33 178.745 L 212.125 178.745 C 208.536 178.745 206.123 181.121 205.152 187.557 L 199.545 224.977 C 199.175 227.404 197.898 228.808 195.982 229 L 164.897 229 C 161.972 229 160.938 226.765 161.704 221.925 L 180.657 101.965 C 181.397 97.163 184.028 94.877 189.265 94.877 Z " fill-rule="evenodd" fill="rgb(0,158,227)"/><path d=" M 158.32 53.587 L 207.847 53.587 C 221.793 53.587 238.344 54.034 249.404 63.804 C 256.799 70.33 260.681 80.713 259.787 91.901 C 256.748 129.717 234.13 150.904 203.785 150.904 L 179.367 150.904 C 175.203 150.904 172.458 153.663 171.283 161.121 L 164.463 204.543 C 164.016 207.353 162.803 209.013 160.631 209.217 L 130.07 209.217 C 126.686 209.217 125.485 206.663 126.366 201.018 L 148.333 61.837 C 149.214 56.244 152.292 53.587 158.32 53.587 Z " fill-rule="evenodd" fill="rgb(17,57,132)"/><path d=" M 171.998 156.715 L 180.644 101.965 C 181.397 97.163 184.028 94.864 189.265 94.864 L 238.74 94.864 C 246.927 94.864 253.555 96.141 258.74 98.504 C 253.772 132.169 231.997 150.866 203.492 150.866 L 179.111 150.866 C 175.842 150.878 173.441 152.513 171.998 156.715 Z " fill-rule="evenodd" fill="rgb(23,44,112)"/></g></svg>

<?xml version="1.0" encoding="utf-8"?>
<!-- Generator: Adobe Illustrator 24.0.1, SVG Export Plug-In . SVG Version: 6.00 Build 0)  -->
<svg version="1.1" id="Layer_1" xmlns="http://www.w3.org/2000/svg" xmlns:xlink="http://www.w3.org/1999/xlink" x="0px" y="0px"
	 viewBox="0 0 400 300" style="enable-background:new 0 0 400 300;" xml:space="preserve">
<style type="text/css">
	.st0{clip-path:url(#SVGID_2_);}
	.st1{fill:url(#SVGID_3_);}
	.st2{fill-rule:evenodd;clip-rule:evenodd;fill:#009EE3;}
	.st3{fill-rule:evenodd;clip-rule:evenodd;fill:#113984;}
	.st4{fill-rule:evenodd;clip-rule:evenodd;fill:#172C70;}
</style>
<g>
	<defs>
		<rect id="SVGID_1_" width="400" height="300"/>
	</defs>
	<clipPath id="SVGID_2_">
		<use xlink:href="#SVGID_1_"  style="overflow:visible;"/>
	</clipPath>
	<g class="st0">
		<linearGradient id="SVGID_3_" gradientUnits="userSpaceOnUse" x1="30" y1="178.5176" x2="370.0001" y2="178.5176">
			<stop  offset="0" style="stop-color:#F5524E"/>
			<stop  offset="1" style="stop-color:#D0342F"/>
		</linearGradient>
		<path class="st1" d="M36.7,165.3l149.1-84.9c7.4-4.2,16.5-4.2,23.9,0.1l153.6,89.5c4.1,2.4,6.6,6.8,6.6,11.5
			c0,4.7-2.6,9.1-6.7,11.5l-143.4,82.4c-9.9,5.7-22.1,5.7-31.9,0l-151.3-87c-4.1-2.4-6.7-6.8-6.7-11.6S32.6,167.7,36.7,165.3z"/>
		<path class="st2" d="M189.3,94.9h49.5c26.6,0,36.6,13.4,35,33.2c-2.6,32.6-22.3,50.7-48.4,50.7h-13.2c-3.6,0-6,2.4-7,8.8
			l-5.6,37.4c-0.4,2.4-1.6,3.8-3.6,4h-31.1c-2.9,0-4-2.2-3.2-7.1l19-120C181.4,97.2,184,94.9,189.3,94.9z"/>
		<path class="st3" d="M158.3,53.6h49.5c13.9,0,30.5,0.4,41.6,10.2c7.4,6.5,11.3,16.9,10.4,28.1c-3,37.8-25.7,59-56,59h-24.4
			c-4.2,0-6.9,2.8-8.1,10.2l-6.8,43.4c-0.4,2.8-1.7,4.5-3.8,4.7h-30.6c-3.4,0-4.6-2.6-3.7-8.2l22-139.2
			C149.2,56.2,152.3,53.6,158.3,53.6z"/>
		<path class="st4" d="M172,156.7l8.6-54.8c0.8-4.8,3.4-7.1,8.6-7.1h49.5c8.2,0,14.8,1.3,20,3.6c-5,33.7-26.7,52.4-55.2,52.4h-24.4
			C175.8,150.9,173.4,152.5,172,156.7z"/>
	</g>
</g>
</svg>
